assets/img/braze_icons/framer.svg

<svg fill="none" height="24" viewBox="0 0 24 24" width="24" xmlns="http://www.w3.org/2000/svg"><path clip-rule="evenodd" d="m5.00003.5c-.40446 0-.7691.243642-.92388.61732-.15478.37367-.06923.80379.21677 1.08979l5.2929 5.29289h-4.58579c-.55229 0-1 .44772-1 1v7c0 .2694.10656.514.27983.6938.00421.0045.00856.009.01305.0135l6.99999 7c.286.286.7161.3716 1.0898.2168s.6173-.5194.6173-.9239v-6l6-.0002c.4045 0 .7691-.2436.9239-.6173s.0692-.8038-.2168-1.0898l-5.2929-5.2929h4.5858c.5523 0 1-.44772 1-1v-7c0-.552285-.4477-1-1-1zm5.99997 16h-3.58596l3.58596 3.586zm7-9h-5.5858l-4.99996-5h10.58576zm-11.99997 2h5.58577l5 5h-10.58577z" fill="#801ed7" fill-rule="evenodd"/></svg>

<svg width="24" height="24" viewBox="0 0 24 24" fill="none" xmlns="http://www.w3.org/2000/svg">
<path fill-rule="evenodd" clip-rule="evenodd" d="M5.00003 0.5C4.59557 0.5 4.23093 0.743642 4.07615 1.11732C3.92137 1.49099 4.00692 1.92111 4.29292 2.20711L9.58582 7.5H5.00003C4.44774 7.5 4.00003 7.94772 4.00003 8.5V15.5C4.00003 15.7694 4.10659 16.014 4.27986 16.1938C4.28407 16.1983 4.28842 16.2028 4.29291 16.2073L11.2929 23.2073C11.5789 23.4933 12.009 23.5789 12.3827 23.4241C12.7564 23.2693 13 22.9047 13 22.5002V16.5002L19 16.5C19.4045 16.5 19.7691 16.2564 19.9239 15.8827C20.0787 15.509 19.9931 15.0789 19.7071 14.7929L14.4142 9.5H19C19.5523 9.5 20 9.05228 20 8.5V1.5C20 0.947715 19.5523 0.5 19 0.5H5.00003ZM11 16.5H7.41404L11 20.086V16.5ZM18 7.5H12.4142L7.41424 2.5H18V7.5ZM6.00003 9.5H11.5858L16.5858 14.5H6.00003V9.5Z" fill="#801ED7"/>
</svg>
